assets/icons/verified-24.svg

<svg width="24" height="24" viewBox="0 0 24 24" fill="none" xmlns="http://www.w3.org/2000/svg">
<path d="M16.6374 9.72602C17.0043 9.32855 16.9796 8.7089 16.5821 8.34199C16.1846 7.97509 15.565 7.99988 15.1981 8.39736L10.4932 13.4943L8.80194 11.6621C8.43504 11.2647 7.81539 11.2399 7.41792 11.6068C7.02044 11.9737 6.99566 12.5933 7.36256 12.9908L9.77348 15.6026C9.95889 15.8035 10.2198 15.9177 10.4932 15.9177C10.7665 15.9177 11.0275 15.8035 11.2129 15.6026L16.6374 9.72602Z" fill="#F2F2F2"/>
<path fill-rule="evenodd" clip-rule="evenodd" d="M14.0322 1.81607C12.8959 0.727978 11.1041 0.727977 9.96782 1.81607L8.67774 3.0514C8.50073 3.2209 8.2666 3.31788 8.02158 3.32319L6.23584 3.3619C4.66295 3.396 3.396 4.66295 3.3619 6.23584L3.32319 8.02158C3.31788 8.2666 3.2209 8.50073 3.0514 8.67774L1.81607 9.96782C0.727978 11.1041 0.727977 12.8959 1.81607 14.0322L3.0514 15.3223C3.2209 15.4993 3.31788 15.7334 3.32319 15.9784L3.3619 17.7642C3.396 19.337 4.66295 20.604 6.23584 20.6381L8.02158 20.6768C8.2666 20.6821 8.50073 20.7791 8.67774 20.9486L9.96782 22.1839C11.1041 23.272 12.8959 23.272 14.0322 22.1839L15.3223 20.9486C15.4993 20.7791 15.7334 20.6821 15.9784 20.6768L17.7642 20.6381C19.337 20.604 20.604 19.337 20.6381 17.7642L20.6768 15.9784C20.6821 15.7334 20.7791 15.4993 20.9486 15.3223L22.1839 14.0322C23.272 12.8959 23.272 11.1041 22.1839 9.96782L20.9486 8.67774C20.7791 8.50073 20.6821 8.2666 20.6768 8.02158L20.6381 6.23584C20.604 4.66295 19.337 3.396 17.7642 3.3619L15.9784 3.32319C15.7334 3.31788 15.4993 3.2209 15.3223 3.0514L14.0322 1.81607ZM11.3226 3.2309C11.7014 2.8682 12.2986 2.8682 12.6774 3.2309L13.9675 4.46623C14.4985 4.97473 15.2009 5.26567 15.936 5.28161L17.7217 5.32032C18.246 5.33168 18.6683 5.754 18.6797 6.2783L18.7184 8.06403C18.7343 8.7991 19.0253 9.50149 19.5338 10.0325L20.7691 11.3226C21.1318 11.7014 21.1318 12.2986 20.7691 12.6774L19.5338 13.9675C19.0253 14.4985 18.7343 15.2009 18.7184 15.936L18.6797 17.7217C18.6683 18.246 18.246 18.6683 17.7217 18.6797L15.936 18.7184C15.2009 18.7343 14.4985 19.0253 13.9675 19.5338L12.6774 20.7691C12.2986 21.1318 11.7014 21.1318 11.3226 20.7691L10.0325 19.5338C9.50149 19.0253 8.7991 18.7343 8.06403 18.7184L6.2783 18.6797C5.754 18.6683 5.33168 18.246 5.32032 17.7217L5.2816 15.936C5.26567 15.2009 4.97473 14.4985 4.46623 13.9675L3.2309 12.6774C2.8682 12.2986 2.8682 11.7014 3.2309 11.3226L4.46623 10.0325C4.97473 9.50149 5.26567 8.7991 5.28161 8.06403L5.32032 6.2783C5.33168 5.754 5.754 5.33169 6.2783 5.32032L8.06403 5.28161C8.7991 5.26567 9.50149 4.97473 10.0325 4.46623L11.3226 3.2309Z" fill="#F2F2F2"/>
</svg>

<svg xmlns="http://www.w3.org/2000/svg" width="24" height="24" viewBox="0 0 24 24"><path d="M16.637 9.726a.98.98 0 10-1.439-1.329l-4.705 5.097-1.691-1.832a.98.98 0 00-1.44 1.329l2.411 2.612a.98.98 0 001.44 0l5.424-5.877z"/><path fill-rule="evenodd" d="M14.032 1.816a2.938 2.938 0 00-4.064 0l-1.29 1.235a.98.98 0 01-.656.272l-1.786.039a2.938 2.938 0 00-2.874 2.874l-.039 1.786a.98.98 0 01-.272.656l-1.235 1.29a2.938 2.938 0 000 4.064l1.235 1.29a.98.98 0 01.272.656l.039 1.786a2.938 2.938 0 002.874 2.874l1.786.039a.98.98 0 01.656.272l1.29 1.235a2.938 2.938 0 004.064 0l1.29-1.235a.98.98 0 01.656-.272l1.786-.039a2.938 2.938 0 002.874-2.874l.039-1.786a.98.98 0 01.272-.656l1.235-1.29a2.938 2.938 0 000-4.064l-1.235-1.29a.98.98 0 01-.272-.656l-.039-1.786a2.938 2.938 0 00-2.874-2.874l-1.786-.039a.98.98 0 01-.656-.272l-1.29-1.235zm-2.71 1.415a.98.98 0 011.355 0l1.29 1.235c.531.509 1.234.8 1.969.816l1.786.038a.98.98 0 01.958.958l.038 1.786a2.94 2.94 0 00.816 1.969l1.235 1.29a.98.98 0 010 1.354l-1.235 1.29a2.938 2.938 0 00-.816 1.969l-.038 1.786a.98.98 0 01-.958.958l-1.786.038a2.938 2.938 0 00-1.969.816l-1.29 1.235a.98.98 0 01-1.354 0l-1.29-1.235a2.938 2.938 0 00-1.969-.816l-1.786-.038a.98.98 0 01-.958-.958l-.038-1.786a2.938 2.938 0 00-.816-1.969l-1.235-1.29a.98.98 0 010-1.354l1.235-1.29a2.94 2.94 0 00.816-1.969l.038-1.786a.98.98 0 01.958-.958l1.786-.038a2.938 2.938 0 001.969-.816l1.29-1.235z"/></svg>
